X:1
T:Les moutons perdus et retrouv\'es
R:Larid\'e 8 temps
G:Traditionnel, pays de Rennes
C:Chansons populaires de la France, Thomas Frederick Crane, janvier 1891
Q:1/4=140
P:A4
M:4/4
K:Em
P:A
%MIDI gchord cfcf
%MIDI program 109
%MIDI gchord fcffcfcz
%MIDI chordprog 42
%MIDI chordvol 127
%MIDI bassprog 34
%MIDI bassvol 127
|: "Em"E>E | "Bm"B4 F2  B>B | "D"A>G F4 "Em"E>E | "Bm"B4 F2 B>B | "D" A>G F6 |
F3 G "Bm"AB "D"GF | "Em"E2 "Bm"B6 | "D"F3 G "Bm"AB "D"GF | "Em"E6 :|


